X:36
T:no name
R:highland
S:Dermot and Tara Diamond
Z:id:hn-hf-36
M:C|
L:1/8
K:D
D2DF AFDF | A,2CE GECE | D2DF AFDF |1 (3EFE CE DA,B,C :|2 (3EFE CE D2 (3EFG ||
A2FA dAAF | G2GA BGE2 | DF~F2 GFED | C2A,2 A,2 (3EFG |
ADFA dAF2 | GFGA BGE2 | DF~F2 GABd | ceAc dBAF ||
P:variations
D2FG AFDF | A,2CE GECE | D2FG AFDF | (3EFE CE DA,B,C |
DCDF AFDF | A,2CE GECE | DEFG AFDF | (3EFE CE D2 (3EFG ||
A2FA dAAF | G2GA BGE2 | DF~F2 GFED | C2A,2 A,GFG |
ADFA dAF2 | GFGA BGE2 | DF~F2 GABd | ceAc dBAF ||

